X:478
T: DIR FOLGEN MEINE THRAENEN
N: F0906
O: Europa, Mitteleuropa, Deutschland
R: Liebes - Lied, Klage
M: 2/4
L: 1/16
K: F
c2 | B_AGFE2F2 | _d2c2
=B4 | c2G2G2_AG | G4z2
G2 | _A2=A2B2=B2 | c_dB4z
c | B_AGF_d2cE | F4z2

